X:9094
T:La Viudita (MG 57)
C:Versión de Silvino Fernández Fueyo
S:Música Tradicional Asturiana, (C) Tello & Tito. Asturies, 2001.
S:http://pagina.de/MusTradAst <telloytito@asturies.org>
A:Asturies
Z:Métodu de Gaita 57
E:Comp.
M:3/8
L:1/8
Q:3/8=90
K:C
|~GCE|~G2 E/G/|~GCE|~G2 E/G/|~GEG|c2 d/c/|
c~dc|~A2 F/A/|AcB|G/A/G/F/ E|EFG|A>FA|ABA|~G>EG|
Gcc|~A>FA|ADE|F ~E/D/ C-|
CCC|F>EF|F~ED|~E>DE|E~DC|~D>CD|D B,/D/B,/D/|F ~E/D/ C-|
CCC|F>~EF|F~ED|~E>DE|E~DC|~D>CD|D B,/D/B,/D/|F ~E/D/ C-|C3|


